X: 5
T:the Earl of Fife's Strathspey
B:William Marshall's Scottish Airs, Melodies, Strathspeys, Reels &c (1822)
C:William Marshall
L:1/8
M:C
O:Scotland
Z:Clark Bernst + Richard Robinson
%%Page:16 - 2
F:http://richardrobinson.tunebook.org.uk/tune/3848
%%TBL:{"version":1,"type":"tune","id":"3848"}
K:A
%%staves {1 2}
V:1
"^Slow"
c  | \
A<AA>F  [B,FB]2(Bc) | A<AA>E A>B c<A | \
d<fc<e 	TB>A    B<c | A<AA>F {F}A2(Ac) |
A<AA>F [B,FB]2 (Bc) | A<AA>F A>B c<A | \
d<fc<e  TB>A    B<c | A<AA>F {F}A2 A ||
f | \
e<ac<a B<bb>g | a>e (a/g/)f/g/ a>eac | \
d<bc<a Bbge | c<aB<g ~a2 Af/g/ |
a>c (~ag/a/) (bB)B (f/g/) | a>ce>c a>ce>c |\
{c}d>e f/e/d/c/ d/c/B/A/ ~B>c | A<F-F>E {E}A2 A, |]
V:2 middle=d clef=bass
L:1/4
z/ | AABB | AAA[Ac] | [Bd][Ac][EB][EB] | AaAA | AABB | AAAc | dcBB | AaAA/ || \
z/ | aabb | aaac' | d'c'bb | aeaa | aabb | aaac' | d'c'ae | deAA/ |]

